Origami/64x64/apps/software-properties.svg

<svg width="64" height="64" version="1" xmlns="http://www.w3.org/2000/svg">
 <path d="m4 56v2c0 1.662 1.338 3 3 3h50c1.662 0 3-1.338 3-3v-2c0 1.662-1.338 3-3 3h-50c-1.662 0-3-1.338-3-3z" style="opacity:.2"/>
 <rect transform="matrix(0,-1,-1,0,0,0)" x="-60" y="-60" width="56" height="56" rx="3" ry="3" style="fill:#cccccc"/>
 <path d="m29.144 12c-0.79144 0-1.134047 0.686818-1.144 1.53906v24.46074h-6.00048l10 14.00126 10-14.00086h-5.99952v-24.46074c0-0.8512-0.35528-1.538-1.14528-1.538z" style="fill:#3f3f3f"/>
 <path d="m7 4c-1.662 0-3 1.338-3 3v1c0-1.662 1.338-3 3-3h50c1.662 0 3 1.338 3 3v-1c0-1.662-1.338-3-3-3h-50z" style="fill:#ffffff;opacity:.1"/>
 <path d="M 63.958,45.848 A 16,16 0 0 1 48,61 16,16 0 0 1 32.042,46.152 16,16 0 0 0 32,47 16,16 0 0 0 48,63 16,16 0 0 0 64,47 16,16 0 0 0 63.95704,45.84766 Z" style="opacity:.2"/>
 <circle cx="48" cy="46" r="16" style="fill-rule:evenodd;fill:#f2ab56"/>
 <path d="m46 38-0.1764 2.1072a6.2858 6.2858 0 0 0 -1.83704 1.06252l-1.91518-0.9018-2 3.4642 1.73882 1.2076a6.2858 6.2858 0 0 0 -0.096 1.06026 6.2858 6.2858 0 0 0 0.0914 1.06474l-1.73438 1.20312 2 3.4642 1.91072-0.89956a6.2858 6.2858 0 0 0 1.8415 1.0558l0.1764 2.1116h4l0.1764-2.1072a6.2858 6.2858 0 0 0 1.83708 -1.06252l1.91516 0.9018 2-3.4642-1.73884-1.2076a6.2858 6.2858 0 0 0 0.096 -1.06026 6.2858 6.2858 0 0 0 -0.0914 -1.06474l1.73438-1.20312-2-3.4642-1.91072 0.89956a6.2858 6.2858 0 0 0 -1.842 -1.056l-0.176-2.112h-4zm2 5.7144a2.2858 2.2858 0 0 1 2.286 2.286 2.2858 2.2858 0 0 1 -2.286 2.286 2.2858 2.2858 0 0 1 -2.286 -2.286 2.2858 2.2858 0 0 1 2.286 -2.286z" style="fill:#ffffff"/>
</svg>

<svg xmlns="http://www.w3.org/2000/svg" width="64" height="64" version="1">
 <path style="opacity:0.2" d="m 4,56 0,2 c 0,1.662 1.338,3 3,3 l 50,0 c 1.662,0 3,-1.338 3,-3 l 0,-2 c 0,1.662 -1.338,3 -3,3 L 7,59 C 5.338,59 4,57.662 4,56 Z"/>
 <rect style="fill:#cccccc" width="56" height="56" x="-60" y="-60" rx="3" ry="3" transform="matrix(0,-1,-1,0,0,0)"/>
 <path style="fill:#3f3f3f" d="M 29.144,12 C 28.35256,12 28.009953,12.686818 28,13.53906 l 0,24.46074 -6.00048,0 10,14.00126 10,-14.00086 -5.99952,0 0,-24.46074 c 0,-0.8512 -0.35528,-1.538 -1.14528,-1.538 z"/>
 <path style="opacity:0.1;fill:#ffffff" d="M 7 4 C 5.338 4 4 5.338 4 7 L 4 8 C 4 6.338 5.338 5 7 5 L 57 5 C 58.662 5 60 6.338 60 8 L 60 7 C 60 5.338 58.662 4 57 4 L 7 4 z"/>
 <path style="opacity:0.2" d="M 63.958,45.848 A 16,16 0 0 1 48,61 16,16 0 0 1 32.042,46.152 16,16 0 0 0 32,47 16,16 0 0 0 48,63 16,16 0 0 0 64,47 16,16 0 0 0 63.95704,45.84766 Z"/>
 <circle style="fill:#f2ab56;fill-rule:evenodd" cx="48" cy="46" r="16"/>
 <path style="fill:#ffffff" d="m 46,38 -0.1764,2.1072 a 6.2858,6.2858 0 0 0 -1.83704,1.06252 l -1.91518,-0.9018 -2,3.4642 1.73882,1.2076 a 6.2858,6.2858 0 0 0 -0.096,1.06026 6.2858,6.2858 0 0 0 0.0914,1.06474 l -1.73438,1.20312 2,3.4642 1.91072,-0.89956 a 6.2858,6.2858 0 0 0 1.8415,1.0558 l 0.1764,2.1116 4,0 0.1764,-2.1072 a 6.2858,6.2858 0 0 0 1.83708,-1.06252 l 1.91516,0.9018 2,-3.4642 -1.73884,-1.2076 a 6.2858,6.2858 0 0 0 0.096,-1.06026 6.2858,6.2858 0 0 0 -0.0914,-1.06474 l 1.73438,-1.20312 -2,-3.4642 -1.91072,0.89956 a 6.2858,6.2858 0 0 0 -1.842,-1.056 l -0.176,-2.112 -4,0 z m 2,5.7144 a 2.2858,2.2858 0 0 1 2.286,2.286 A 2.2858,2.2858 0 0 1 48,48.2864 2.2858,2.2858 0 0 1 45.714,46.0004 2.2858,2.2858 0 0 1 48,43.7144 Z"/>
</svg>
